X:135
T:Colonel McBain
R:Reel
B:O'Neill - 1001 Gems (645)
M:C|
L:1/8
K:E Minor
EF|GBEF GEBE|FADE FDAD|GBEF GEBE|FADF E2 EF|
GBEF GEBE|FADE FDAD|G2 GF GBdB|AFDF E2||EF|
G2 GF GBdB|ABAG FAAF|Eee^d ef|gefd Beef|gfge dedB|
ABAG FGAF|Beed BcdB|AFDF E2||

